src/assets/aragonNetworkLogo.svg

<svg width="33" height="32" viewBox="0 0 33 32" fill="none" xmlns="http://www.w3.org/2000/svg">
<circle cx="16.6899" cy="16" r="16" fill="url(#paint0_linear)" fill-opacity="0.05"/>
<path d="M29.1925 14.9427C29.3035 12.6374 27.6934 11.1081 25.8763 10.0581L24.6952 16.9969C25.5129 16.9512 25.9126 17.2617 26.058 17.4077C26.2397 17.5903 26.694 18.1381 26.1489 19.0055C27.2845 18.8229 29.0584 17.7273 29.1925 14.9427Z" fill="url(#paint1_linear)"/>
<path fill-rule="evenodd" clip-rule="evenodd" d="M13.6992 6.86326L12.2909 5.44812C14.4109 5.18943 20.0045 5.52116 25.4194 8.91751C25.5102 9.28271 25.4194 9.83051 25.4194 9.83051L25.8736 10.0588C26.2673 10.6218 26.9366 12.2226 26.4642 14.1216C25.9918 16.0206 25.1771 16.8302 24.8288 16.9976C24.102 16.9976 22.8664 17.4175 22.4666 19.2801C22.0669 21.1426 21.3007 21.5473 20.9675 21.5169L12.9723 21.6082L7.7028 18.504L6.93054 12.0674L8.42964 10.0588L11.1098 7.86756L13.0178 7.09151L13.6992 6.86326ZM23.1419 9.52351C22.7894 9.89074 22.4598 10.0669 22.3657 10.1147C20.3075 9.67679 19.566 8.61175 19.566 8.61175C21.5074 8.59977 23.2596 9.06164 24.5416 9.84296C24.5416 9.84296 23.8477 9.61802 23.1419 9.52351Z" fill="url(#paint2_linear)"/>
<path fill-rule="evenodd" clip-rule="evenodd" d="M22.3957 19.281C20.9842 19.9739 19.3106 20.3751 17.5161 20.3751C12.4733 20.3751 8.38525 17.2071 8.38525 13.2993C8.38525 10.4121 10.6167 7.92884 13.816 6.82861C7.73277 7.17882 2.84424 12.0657 2.84424 18.0957C2.84424 25.0547 9.04746 30.8048 16.6995 30.8048C22.4135 30.8048 27.1698 27.4919 29.6568 23.0595C26.2348 23.8291 22.184 22.3659 22.3957 19.281Z" fill="url(#paint3_linear)"/>
<defs>
<linearGradient id="paint0_linear" x1="16.6899" y1="11.1972" x2="16.6899" y2="32.4207" gradientUnits="userSpaceOnUse">
<stop stop-color="#01E8F8"/>
<stop offset="1" stop-color="#01E8F8" stop-opacity="0"/>
</linearGradient>
<linearGradient id="paint1_linear" x1="26.9658" y1="12.5888" x2="27.5732" y2="20.4277" gradientUnits="userSpaceOnUse">
<stop stop-color="#01E8F7"/>
<stop offset="1" stop-color="#00C2FF"/>
</linearGradient>
<linearGradient id="paint2_linear" x1="13.3034" y1="7.11988" x2="21.5459" y2="20.2017" gradientUnits="userSpaceOnUse">
<stop stop-color="#01E8F7"/>
<stop offset="1" stop-color="#00B3EC"/>
</linearGradient>
<linearGradient id="paint3_linear" x1="16.3652" y1="13.6101" x2="17.1011" y2="34.7163" gradientUnits="userSpaceOnUse">
<stop stop-color="#01E8F7"/>
<stop offset="1" stop-color="#00C2FF"/>
</linearGradient>
</defs>
</svg>

<svg fill="none" height="32" width="33" xmlns="http://www.w3.org/2000/svg" xmlns:xlink="http://www.w3.org/1999/xlink"><linearGradient id="a" gradientUnits="userSpaceOnUse" x1="16.69" x2="16.69" y1="11.197" y2="32.421"><stop offset="0" stop-color="#01e8f8"/><stop offset="1" stop-color="#01e8f8" stop-opacity="0"/></linearGradient><linearGradient id="b"><stop offset="0" stop-color="#01e8f7"/><stop offset="1" stop-color="#00c2ff"/></linearGradient><linearGradient id="c" gradientUnits="userSpaceOnUse" x1="26.966" x2="27.573" xlink:href="#b" y1="12.589" y2="20.428"/><linearGradient id="d" gradientUnits="userSpaceOnUse" x1="13.303" x2="21.546" y1="7.12" y2="20.202"><stop offset="0" stop-color="#01e8f7"/><stop offset="1" stop-color="#00b3ec"/></linearGradient><linearGradient id="e" gradientUnits="userSpaceOnUse" x1="16.365" x2="17.101" xlink:href="#b" y1="13.61" y2="34.717"/><circle cx="16.69" cy="16" fill="url(#a)" fill-opacity=".05" r="16"/><path d="m29.193 14.943c.11-2.305-1.5-3.835-3.317-4.884l-1.18 6.938c.817-.045 1.217.265 1.362.411.182.183.636.73.091 1.598 1.136-.183 2.91-1.278 3.044-4.063z" fill="url(#c)"/><g clip-rule="evenodd" fill-rule="evenodd"><path d="m13.7 6.864-1.41-1.416c2.12-.258 7.714.073 13.128 3.47.091.365 0 .913 0 .913l.455.228c.393.563 1.063 2.164.59 4.063-.472 1.899-1.287 2.708-1.635 2.876-.727 0-1.963.42-2.362 2.282-.4 1.863-1.166 2.268-1.5 2.237l-7.994.091-5.27-3.104-.772-6.436 1.499-2.009 2.68-2.191 1.908-.776.681-.228zm9.442 2.66a2.97 2.97 0 0 1 -.776.591c-2.058-.438-2.8-1.503-2.8-1.503 1.942-.012 3.694.45 4.976 1.231 0 0-.694-.225-1.4-.32z" fill="url(#d)"/><path d="m22.396 19.281c-1.412.693-3.085 1.094-4.88 1.094-5.043 0-9.13-3.168-9.13-7.075 0-2.888 2.23-5.37 5.43-6.471-6.083.35-10.972 5.237-10.972 11.267 0 6.959 6.203 12.71 13.856 12.71 5.713 0 10.47-3.314 12.957-7.746-3.422.77-7.473-.694-7.261-3.779z" fill="url(#e)"/></g></svg>
